X: 2249
T: LIMBER UP
Q: "Reel."
R: Reel.
%R: reel
B: James Kerr "Merry Melodies" v.2 p.27 #249
Z: 2016 John Chambers <jc:trillian.mit.edu>
M: C
L: 1/8
K: G
|:\
G2Be d2Be | d2Be dBg2 | G2Be d2 \
[1,3 Be | d2cB (Ac)BA :|\
[2,4 B2 | AcBA G2z2 ::\
b2gb a2fa | g2eg f^dB2 |\
[1 b2gb a2fa | gfga b2(ga) :|\
[2 B2(^df) bagf | agfg e2d2 |]
